assets/ios/swift/Icons.xcassets/exportArchive.imageset/exportArchive.svg

<svg width="24" height="24" viewBox="0 0 24 24" fill="none" xmlns="http://www.w3.org/2000/svg">
<path d="M5 21C4.45 21 3.97917 20.8042 3.5875 20.4125C3.19583 20.0208 3 19.55 3 19V6.5C3 6.25 3.04167 6.025 3.125 5.825C3.20833 5.625 3.31667 5.43333 3.45 5.25L4.85 3.55C4.98333 3.36667 5.15 3.22917 5.35 3.1375C5.55 3.04583 5.76667 3 6 3H18C18.2333 3 18.45 3.04583 18.65 3.1375C18.85 3.22917 19.0167 3.36667 19.15 3.55L20.55 5.25C20.6833 5.43333 20.7917 5.625 20.875 5.825C20.9583 6.025 21 6.25 21 6.5V19C21 19.55 20.8042 20.0208 20.4125 20.4125C20.0208 20.8042 19.55 21 19 21H5ZM5.4 6H18.6L17.75 5H6.25L5.4 6ZM5 19H19V8H5V19ZM12 17.575C12.1333 17.575 12.2583 17.5542 12.375 17.5125C12.4917 17.4708 12.6 17.4 12.7 17.3L15.3 14.7C15.4833 14.5167 15.575 14.2833 15.575 14C15.575 13.7167 15.4833 13.4833 15.3 13.3C15.1167 13.1167 14.8833 13.025 14.6 13.025C14.3167 13.025 14.0833 13.1167 13.9 13.3L13 14.2V11C13 10.7167 12.9042 10.4792 12.7125 10.2875C12.5208 10.0958 12.2833 10 12 10C11.7167 10 11.4792 10.0958 11.2875 10.2875C11.0958 10.4792 11 10.7167 11 11V14.2L10.1 13.3C9.91667 13.1167 9.68333 13.025 9.4 13.025C9.11667 13.025 8.88333 13.1167 8.7 13.3C8.51667 13.4833 8.425 13.7167 8.425 14C8.425 14.2833 8.51667 14.5167 8.7 14.7L11.3 17.3C11.4 17.4 11.5083 17.4708 11.625 17.5125C11.7417 17.5542 11.8667 17.575 12 17.575Z" fill="black"/>
</svg>

<svg xmlns="http://www.w3.org/2000/svg" width="24" height="24" fill="black" viewBox="0 0 24 24">
  <path d="M5 21c-.55 0-1.02-.196-1.413-.587A1.926 1.926 0 0 1 3 19V6.5c0-.25.042-.475.125-.675.083-.2.192-.392.325-.575l1.4-1.7c.133-.183.3-.32.5-.412C5.55 3.046 5.767 3 6 3h12c.233 0 .45.046.65.138.2.091.367.229.5.412l1.4 1.7c.133.183.242.375.325.575.083.2.125.425.125.675V19c0 .55-.196 1.02-.587 1.413A1.926 1.926 0 0 1 19 21H5Zm.4-15h13.2l-.85-1H6.25L5.4 6ZM5 19h14V8H5v11Zm7-1.425c.133 0 .258-.02.375-.063a.877.877 0 0 0 .325-.212l2.6-2.6a.948.948 0 0 0 .275-.7.948.948 0 0 0-.275-.7.948.948 0 0 0-.7-.275.948.948 0 0 0-.7.275l-.9.9V11a.968.968 0 0 0-.287-.713A.968.968 0 0 0 12 10a.968.968 0 0 0-.713.287A.968.968 0 0 0 11 11v3.2l-.9-.9a.948.948 0 0 0-.7-.275.948.948 0 0 0-.7.275.948.948 0 0 0-.275.7.95.95 0 0 0 .275.7l2.6 2.6c.1.1.208.17.325.212.117.042.242.063.375.063Z"/>
</svg>
